icons/appcode-light.svg

<svg width="256" height="256" viewBox="0 0 256 256" fill="none" xmlns="http://www.w3.org/2000/svg">
<path d="M196 0H60C26.8629 0 0 26.8629 0 60V196C0 229.137 26.8629 256 60 256H196C229.137 256 256 229.137 256 196V60C256 26.8629 229.137 0 196 0Z" fill="#F4F2ED"/>
<path d="M192.228 181.184L221 105.041L134.103 85.2781L122.769 117.828L192.228 181.184Z" fill="#247CE6"/>
<path d="M221 184.091L177.116 221L89.6375 198.331L113.178 155.9L221 184.091Z" fill="url(#paint0_linear_61_15)"/>
<path d="M60.575 127.419L38.4875 63.7719L137.009 35L129.162 117.537L60.575 127.419Z" fill="url(#paint1_linear_61_15)"/>
<path d="M197.169 142.531L169.559 95.45L170.141 95.1594L137.009 35L35 145.147V221L220.419 184.091L197.169 142.531Z" fill="url(#paint2_linear_61_15)"/>
<path d="M186.125 69.875H69.875V186.125H186.125V69.875Z" fill="black"/>
<path d="M80.6281 164.328H124.222V171.594H80.6281V164.328ZM99.8094 84.9874H109.4L129.744 132.941H118.7L114.341 122.187H94.2875L89.9281 132.941H79.175L99.8094 84.9874ZM110.853 113.178L104.459 97.7749L98.0656 113.178H110.853ZM127.128 109.4C126.967 102.646 129.579 96.121 134.356 91.3439C139.134 86.5668 145.659 83.9547 152.412 84.1155C161.422 84.1155 166.944 87.0218 171.594 91.6718L164.909 99.5187C161.131 96.0312 157.353 93.9968 152.412 93.9968C144.275 93.9968 138.462 100.681 138.462 109.109C138.462 117.537 144.275 124.222 152.412 124.222C157.934 124.222 161.422 121.897 165.2 118.409L171.884 125.384C166.944 130.616 161.422 134.103 152.122 134.103C145.494 134.27 139.084 131.73 134.369 127.07C129.653 122.409 127.039 116.029 127.128 109.4Z" fill="white"/>
<defs>
    <linearGradient id="paint0_linear_61_15" x1="104.169" y1="3410.9" x2="13225.9" y2="3410.9" gradientUnits="userSpaceOnUse">
        <stop offset="0.19" stop-color="#00DAF0"/>
        <stop offset="0.9" stop-color="#247CE6"/>
    </linearGradient>
    <linearGradient id="paint1_linear_61_15" x1="22994.1" y1="-6.29054e+06" x2="691958" y2="-6.29054e+06" gradientUnits="userSpaceOnUse">
        <stop offset="0.19" stop-color="#00DAF0"/>
        <stop offset="0.9" stop-color="#247CE6"/>
    </linearGradient>
    <linearGradient id="paint2_linear_61_15" x1="12222.4" y1="19225" x2="2968.57" y2="6392.27" gradientUnits="userSpaceOnUse">
        <stop offset="0.09" stop-color="#1DDF93"/>
        <stop offset="0.48" stop-color="#00DAF0"/>
        <stop offset="0.9" stop-color="#247CE6"/>
    </linearGradient>
    <clipPath id="clip0_61_15">
        <rect width="256" height="256" fill="white"/>
    </clipPath>
</defs>
</svg>

<svg xmlns="http://www.w3.org/2000/svg" width="256" height="256" fill="none"><path fill="#F4F2ED" d="M196 0H60C26.863 0 0 26.863 0 60v136c0 33.137 26.863 60 60 60h136c33.137 0 60-26.863 60-60V60c0-33.137-26.863-60-60-60"/><path fill="#247CE6" d="M192.228 181.184 221 105.041l-86.897-19.763-11.334 32.55z"/><path fill="url(#paint0_linear_61_15)" d="M221 184.091 177.116 221l-87.479-22.669 23.541-42.431z"/><path fill="url(#paint1_linear_61_15)" d="M60.575 127.419 38.487 63.772 137.01 35l-7.847 82.537z"/><path fill="url(#paint2_linear_61_15)" d="m197.169 142.531-27.61-47.081.582-.29L137.009 35 35 145.147V221l185.419-36.909z"/><path fill="#000" d="M186.125 69.875H69.875v116.25h116.25z"/><path fill="#fff" d="M80.628 164.328h43.594v7.266H80.628zm19.181-79.34h9.591l20.344 47.953H118.7l-4.359-10.754H94.288l-4.36 10.754H79.175zm11.044 28.19-6.394-15.403-6.393 15.403zm16.275-3.778a24.703 24.703 0 0 1 25.284-25.285c9.01 0 14.532 2.907 19.182 7.557l-6.685 7.847c-3.778-3.488-7.556-5.522-12.497-5.522-8.137 0-13.95 6.684-13.95 15.112s5.813 15.113 13.95 15.113c5.522 0 9.01-2.325 12.788-5.813l6.684 6.975c-4.94 5.232-10.462 8.719-19.762 8.719a24.38 24.38 0 0 1-24.994-24.703"/><defs><linearGradient id="paint0_linear_61_15" x1="104.169" x2="13225.9" y1="3410.9" y2="3410.9" gradientUnits="userSpaceOnUse"><stop offset=".19" stop-color="#00DAF0"/><stop offset=".9" stop-color="#247CE6"/></linearGradient><linearGradient id="paint1_linear_61_15" x1="22994.1" x2="691958" y1="-6290540" y2="-6290540" gradientUnits="userSpaceOnUse"><stop offset=".19" stop-color="#00DAF0"/><stop offset=".9" stop-color="#247CE6"/></linearGradient><linearGradient id="paint2_linear_61_15" x1="12222.4" x2="2968.57" y1="19225" y2="6392.27" gradientUnits="userSpaceOnUse"><stop offset=".09" stop-color="#1DDF93"/><stop offset=".48" stop-color="#00DAF0"/><stop offset=".9" stop-color="#247CE6"/></linearGradient></defs></svg>
